X:1
T:The Chattering Magpie
T:The Gun in the Thatch
S:Paul McGrattan : The Frost is All Over
Z:Philippe Murphy
M:4/4
L:1/8
R:reel
K:G
B2AF DGGA | B2ge fdcA | BGAF DGGE | FGAB cedc |
B2AF DGGA | B2ge fdcA | BGAF DGGE | FGAB cABc |: 
dggf g2bg | dg3 fgaf | dggf g3a | b2ag fdcA :|
P:"Variation"
dggf g2bg | dg3 fgaf | dggf g3a | b2ag fdcA |
dggf g2bg | dg3 fgac' | bgaf g3a | b2ag fdcA |]
